X:5156
T:Pleyel's Rondo. CJF.117
O:england
M:2/4
L:1/16
Q:120
S: C.J.Fox MS, 1829/33, Beverley,E.Yorks.
R:Rondo
A:East Yorkshire
B:Kidson Coll.Mitchell Lib.M1805
N:I Have added the final repeat mark. - PJH.
K:G
GABc dBce|.d2.B2G4|FGAB cABG|.A2.F2D4|\
GABc dBce|d2g2b4|abag fgaf|g2b2g4h:||:
gfgd B2B2|d^cdB G2G2|FGAB cABG|B2^cdD4|\
gfgd B2B2|d^cdB G2G2|^cdef gefd|^cd"DC"ecd4:||


